X: 29498
T: Nina
R: mazurka
M: 3/4
K: Adorian
ec Bc ec|Bc A4|Bc BA EA|Bc BA Bc|
ec Bc ec|Bc A4|zA ce- ed/c/|B6:|
|:AB ce- ec|Bc ge- ec|Bc dg- gf|ef gB- B2|
AB ce- ec|Bc ge- ec|Bc dg- gf|1 ed ef B2:|2 e6||

